Numix-GalliumOS/24/status/battery-missing.svg

<?xml version="1.0" encoding="UTF-8" standalone="no"?>
<svg
   xmlns:dc="http://purl.org/dc/elements/1.1/"
   xmlns:cc="http://creativecommons.org/ns#"
   xmlns:rdf="http://www.w3.org/1999/02/22-rdf-syntax-ns#"
   xmlns:svg="http://www.w3.org/2000/svg"
   xmlns="http://www.w3.org/2000/svg"
   xmlns:sodipodi="http://sodipodi.sourceforge.net/DTD/sodipodi-0.dtd"
   xmlns:inkscape="http://www.inkscape.org/namespaces/inkscape"
   width="24"
   viewBox="0 0 24 24"
   height="24"
   id="svg2"
   version="1.1"
   inkscape:version="0.91 r"
   sodipodi:docname="xfpm-ups-missing.svg">
  <metadata
     id="metadata12">
    <rdf:RDF>
      <cc:Work
         rdf:about="">
        <dc:format>image/svg+xml</dc:format>
        <dc:type
           rdf:resource="http://purl.org/dc/dcmitype/StillImage" />
      </cc:Work>
    </rdf:RDF>
  </metadata>
  <defs
     id="defs10" />
  <sodipodi:namedview
     pagecolor="#ffffff"
     bordercolor="#666666"
     borderopacity="1"
     objecttolerance="10"
     gridtolerance="10"
     guidetolerance="10"
     inkscape:pageopacity="0"
     inkscape:pageshadow="2"
     inkscape:window-width="1280"
     inkscape:window-height="998"
     id="namedview8"
     showgrid="true"
     inkscape:zoom="24.332182"
     inkscape:cx="3.9546826"
     inkscape:cy="8.6492181"
     inkscape:window-x="0"
     inkscape:window-y="0"
     inkscape:window-maximized="1"
     inkscape:current-layer="svg2">
    <inkscape:grid
       type="xygrid"
       id="grid2983"
       empspacing="5"
       visible="true"
       enabled="true"
       snapvisiblegridlinesonly="true" />
  </sodipodi:namedview>
  <path
     style="opacity:0.40000000000000002;fill:#ececec;fill-opacity:1"
     inkscape:connector-curvature="0"
     d="M 9,4 9,6 6,6 6,20 18,20 18,6 15,6 15,4 9,4 z M 8.625,9 c 0.147343,0.0011 0.282592,0.03264 0.40625,0.0625 0.01931,0.0018 0.04344,-0.0024 0.0625,0 0.14047,0.02105 0.280167,0.06011 0.40625,0.125 0.0092,0.0045 0.02214,-0.0048 0.03125,0 0.02416,0.01319 0.03907,0.04718 0.0625,0.0625 0.04404,0.0288 0.05253,0.0567 0.09375,0.09375 0.05946,0.05344 0.134816,0.114452 0.1875,0.1875 0.363467,0.336981 0.714152,0.67898 1.0625,1.03125 0.0051,0.0051 0.0261,-0.0051 0.03125,0 0.345459,0.344731 0.694049,0.709155 1.03125,1.0625 0.346758,-0.353836 0.682902,-0.71023 1.03125,-1.0625 0.348348,-0.35227 0.699037,-0.694269 1.0625,-1.03125 0.192002,-0.266224 0.45557,-0.381243 0.71875,-0.4375 0.02989,-0.01042 0.06309,-0.02262 0.09375,-0.03125 0.07351,-0.02211 0.16996,-0.01975 0.25,-0.03125 0.224168,-0.02813 0.455602,-0.02404 0.78125,0.03125 0.05712,0.407412 0.06696,0.744636 0,1.03125 -0.0023,0.0097 0.0024,0.02166 0,0.03125 -0.02045,0.141132 -0.05724,0.246585 -0.125,0.375 -0.03927,0.07441 -0.06357,0.147887 -0.125,0.21875 -0.05506,0.0657 -0.11003,0.124433 -0.1875,0.1875 L 13.375,13 l 1.0625,1.0625 c 0.352893,0.347732 0.724922,0.699677 1.0625,1.0625 0.296473,0.213066 0.39134,0.48396 0.4375,0.78125 0.01281,0.08253 0.02825,0.16448 0.03125,0.25 0.02819,0.223782 0.02415,0.487406 -0.03125,0.8125 C 15.75974,16.99362 15.619122,16.9976 15.46875,17 15.28918,17.0073 15.108825,16.9914 14.9375,16.96875 14.785048,16.94951 14.637739,16.91617 14.5,16.84375 14.42206,16.80364 14.35138,16.75054 14.28125,16.6875 14.22179,16.63406 14.14644,16.57305 14.09375,16.5 L 12,14.40625 9.875,16.5 c -0.06318,0.07733 -0.12168,0.13255 -0.1875,0.1875 -0.248134,0.223019 -0.525931,0.27029 -0.84375,0.28125 -0.01045,0.0012 -0.02068,-0.0011 -0.03125,0 C 8.74755,16.97515 8.694761,16.99902 8.625,17 8.59772,17.000382 8.55935,17.000433 8.53125,17 8.380882,16.9977 8.209007,16.9936 8.03125,16.96875 8.028369,16.793892 8.00654,16.616641 8,16.4375 7.999176,16.38514 7.9973,16.32998 8,16.28125 7.999534,16.176347 8.01947,16.070112 8.03125,15.96875 8.05006,15.806951 8.08199,15.675005 8.15625,15.53125 8.19643,15.45345 8.24935,15.38252 8.3125,15.3125 8.36604,15.25314 8.426824,15.17759 8.5,15.125 8.842862,14.767187 9.212126,14.412614 9.5625,14.0625 9.915393,13.714768 10.239287,13.346146 10.59375,13 L 9.5625,11.96875 C 9.209607,11.621018 8.837577,11.269075 8.5,10.90625 8.42253,10.84318 8.36756,10.784455 8.3125,10.71875 8.147332,10.521648 8.060157,10.322025 8.03125,10.09375 c -0.009,-0.07102 0.0021,-0.144003 0,-0.21875 -0.02677,-0.233774 -0.04332,-0.503492 0,-0.8125 C 8.25321,9.024814 8.455445,8.9987 8.625,9 z"
     id="path4" />
</svg>

<svg xmlns="http://www.w3.org/2000/svg" viewBox="0 0 24 24">
 <path d="m 9 4 0 2 -3 0 0 14 12 0 0 -14 -3 0 0 -2 -6 0 z m -0.375 5 c 0.147 0.001 0.283 0.033 0.406 0.063 0.019 0.002 0.043 -0.002 0.063 0 0.14 0.021 0.28 0.06 0.406 0.125 0.009 0.005 0.022 -0.005 0.031 0 0.024 0.013 0.039 0.047 0.063 0.063 0.044 0.029 0.053 0.057 0.094 0.094 0.059 0.053 0.135 0.114 0.188 0.188 0.363 0.337 0.714 0.679 1.063 1.031 0.005 0.005 0.026 -0.005 0.031 0 0.345 0.345 0.694 0.709 1.031 1.063 0.347 -0.354 0.683 -0.71 1.031 -1.063 0.348 -0.352 0.699 -0.694 1.063 -1.031 0.192 -0.266 0.456 -0.381 0.719 -0.438 0.03 -0.01 0.063 -0.023 0.094 -0.031 0.074 -0.022 0.17 -0.02 0.25 -0.031 0.224 -0.028 0.456 -0.024 0.781 0.031 0.057 0.407 0.067 0.745 0 1.031 -0.002 0.01 0.002 0.022 0 0.031 -0.02 0.141 -0.057 0.247 -0.125 0.375 -0.039 0.074 -0.064 0.148 -0.125 0.219 -0.055 0.066 -0.11 0.124 -0.188 0.188 l -2.125 2.094 l 1.063 1.063 c 0.353 0.348 0.725 0.7 1.063 1.063 0.296 0.213 0.391 0.484 0.438 0.781 0.013 0.083 0.028 0.164 0.031 0.25 0.028 0.224 0.024 0.487 -0.031 0.813 c -0.178 0.025 -0.318 0.029 -0.469 0.031 -0.18 0.007 -0.36 -0.009 -0.531 -0.031 -0.152 -0.019 -0.3 -0.053 -0.438 -0.125 -0.078 -0.04 -0.149 -0.093 -0.219 -0.156 -0.059 -0.053 -0.135 -0.114 -0.188 -0.188 l -2.094 -2.094 -2.125 2.094 c -0.063 0.077 -0.122 0.133 -0.188 0.188 -0.248 0.223 -0.526 0.27 -0.844 0.281 -0.01 0.001 -0.021 -0.001 -0.031 0 c -0.065 0.006 -0.118 0.03 -0.188 0.031 -0.027 0 -0.066 0 -0.094 0 -0.15 -0.002 -0.322 -0.006 -0.5 -0.031 -0.003 -0.175 -0.025 -0.352 -0.031 -0.531 -0.001 -0.052 -0.003 -0.108 0 -0.156 0 -0.105 0.019 -0.211 0.031 -0.313 0.019 -0.162 0.051 -0.294 0.125 -0.438 0.04 -0.078 0.093 -0.149 0.156 -0.219 0.054 -0.059 0.114 -0.135 0.188 -0.188 0.343 -0.358 0.712 -0.712 1.063 -1.063 0.353 -0.348 0.677 -0.716 1.031 -1.063 l -1.031 -1.031 c -0.353 -0.348 -0.725 -0.7 -1.063 -1.063 -0.077 -0.063 -0.132 -0.122 -0.188 -0.188 -0.165 -0.197 -0.252 -0.397 -0.281 -0.625 c -0.009 -0.071 0.002 -0.144 0 -0.219 -0.027 -0.234 -0.043 -0.503 0 -0.813 c 0.222 -0.038 0.424 -0.064 0.594 -0.063 z" style="fill:#ececec;opacity:0.4;fill-opacity:1"/>
</svg>
